X:899
T:Sporting Nell
R:reel
H:See also "Sporting Nellie" #760, "Long Strand" #531, #165,
H:"Old Gorman's Reel" #603
Z:id:hn-reel-899
M:C|
L:1/8
K:Ddor
ADED A2dc | AcGE EDEG | ADED A2dc | AcGE EDD2 :|
c2ec gcec | c2ec AddB | c2ec gcec | AcGE EDD2 |
c2ec gcec | c2ec Adde | f3d ~e3d | cAAG Addc ||
P:variations
|: AD~D2 A2dc | A2GE ED (3EFG | AD~D2 A2dc | (3ABc GE EDD2 :|
cdec Gcec | cdec Adde | cdec gcec | A2GE EDD2 |
cdec Gcec | cdec Acde | f3d efed | cAAG Addc ||

